X:44
T:Staten Island
C:Joe Buchanan's Scottish Tome - Page 179.2
I:179 2
Z:Carl Allison
R:Hornpipe
L:1/8
M:4/4
K:D
A | F/D/F/G/ AA | d/f/e/d/  d/c/B/A/  | BG/B/ AF/A/ | GE EA |
F/D/F/G/  AA | d/f/e/d/  d/c/B/A/  | dd e/f/g/e/  | fd d :|
fg | af/a/  ge/g/  | fd/f/  ec/A/  | =cc e/=f/g/e/  | =cc e/=f/g/e/  |
ag/a/  ge/g/ | fd/f/ e/c/A | dd e/f/g/e/  | fd d :|

